svgs/sharp-solid/helicopter-symbol.svg

<svg xmlns="http://www.w3.org/2000/svg" viewBox="0 0 512 512"><!--! Font Awesome Pro 6.6.0 by @fontawesome - https://fontawesome.com License - https://fontawesome.com/license (Commercial License) Copyright 2024 Fonticons, Inc. --><path d="M445.3 224l64.7 0C495.6 108.2 403.8 16.4 288 2l0 64.7C368.4 80.1 431.9 143.6 445.3 224zM510 288l-64.7 0C431.9 368.4 368.4 431.9 288 445.3l0 64.7c115.8-14.4 207.6-106.2 222-222zM2 288C16.4 403.8 108.2 495.6 224 510l0-64.7C143.6 431.9 80.1 368.4 66.7 288L2 288zm0-64l64.7 0C80.1 143.6 143.6 80.1 224 66.7L224 2C108.2 16.4 16.4 108.2 2 224zm206-64l0-32-64 0 0 32 0 192 0 32 64 0 0-32 0-64 96 0 0 64 0 32 64 0 0-32 0-192 0-32-64 0 0 32 0 64-96 0 0-64z"/></svg>

<svg xmlns="http://www.w3.org/2000/svg" viewBox="0 0 512 512"><!--! Font Awesome Pro 6.4.0 by @fontawesome - https://fontawesome.com License - https://fontawesome.com/license (Commercial License) Copyright 2023 Fonticons, Inc. --><path d="M445.3 224H510C495.6 108.2 403.8 16.4 288 2V66.7C368.4 80.1 431.9 143.6 445.3 224zM510 288H445.3C431.9 368.4 368.4 431.9 288 445.4V510c115.8-14.4 207.6-106.2 222-222zM2 288C16.4 403.8 108.2 495.6 224 510V445.4C143.6 431.9 80.1 368.4 66.7 288H2zm0-64H66.7C80.1 143.6 143.6 80.1 224 66.7V2C108.2 16.4 16.4 108.2 2 224zm206-64V128H144v32V352v32h64V352 288h96v64 32h64V352 160 128H304v32 64H208V160z"/></svg>
